autogermania/dist/img/svg/alkantara.svg

<svg xmlns="http://www.w3.org/2000/svg" width="21" height="25"><path fill-rule="evenodd" d="M20.773 6.813c-.203.241-.408.48-.597.733-.7.937-1.259 1.966-1.636 3.109a8.865 8.865 0 00-.428 3.315c.032.578.082 1.152.193 1.719.111.566.272 1.115.51 1.634.396.866.966 1.558 1.724 2.06.043.029.086.055.127.087a.88.88 0 01.263 1.037c-.026.064-.059.125-.09.187l-1.421 2.804c-.035.069-.068.138-.11.201-.185.283-.504.407-.811.315a1.215 1.215 0 01-.162-.06 11.336 11.336 0 00-2.295-.72 7.51 7.51 0 00-1.806-.157 5.004 5.004 0 00-1.692.354 3.963 3.963 0 00-1.669 1.302c-.036.048-.069.099-.111.142-.158.163-.357.165-.518.006-.032-.03-.058-.068-.085-.105-.626-.851-1.443-1.349-2.41-1.569a5.91 5.91 0 00-1.828-.109c-1.11.096-2.173.401-3.209.835-.066.028-.133.057-.2.079-.327.099-.652-.035-.84-.344-.028-.045-.052-.093-.076-.141L.143 20.661a1.061 1.061 0 01-.14-.461c-.007-.315.106-.559.34-.74.023-.017.048-.032.073-.048.951-.617 1.596-1.513 1.988-2.638a8.584 8.584 0 00.381-1.63c.074-.526.102-1.056.114-1.587a8.705 8.705 0 00-.598-3.353A11.192 11.192 0 00.322 6.918c-.039-.045-.08-.088-.118-.135a.889.889 0 01-.045-1.075c.016-.026.035-.05.053-.074.487-.64.976-1.28 1.462-1.924.137-.182.301-.311.518-.339a.866.866 0 01.233.002 6.98 6.98 0 001.3.059c.45-.025.891-.106 1.319-.265C6.167 2.748 6.93 1.922 7.358.714c.026-.073.045-.149.075-.219.125-.291.332-.462.628-.49.071-.006.143-.005.214-.005h4.445c.072 0 .143-.001.214.005.296.026.504.194.632.484.021.049.035.102.052.154.485 1.43 1.412 2.31 2.764 2.655.61.155 1.227.174 1.848.109.127-.013.254-.029.382-.043a.718.718 0 01.625.236c.036.038.067.08.099.122l1.436 1.89c.027.036.055.072.08.11a.812.812 0 01.147.472c0 .262-.084.45-.226.619zM18.702 4.2l-.524.048c-.054.006-.109-.002-.163.002v1.324h-1.88V4.09l-.014-.003a4.367 4.367 0 01-2.127-1.277 5.116 5.116 0 01-1.049-1.749c-.027-.078-.036-.169-.102-.224-.267-.025-4.532-.01-4.712.018l-.085.228c-.535 1.413-1.448 2.39-2.777 2.882-.126.047-.257.054-.385.09v1.519H3.005v-1.32c-.054-.003-.107.006-.161.002l-.277-.026a22.077 22.077 0 01-.262-.025C1.943 4.638.874 6.058.784 6.229l.142.169c.968 1.148 1.731 2.436 2.229 3.906.152.447.269.901.355 1.362h1.364v2.061H3.639c-.006.319-.005.638-.033.957a11.71 11.71 0 01-.142 1.059h1.579v2.06H3.164v-.895c-.429 1.334-1.155 2.422-2.282 3.177-.035.023-.066.053-.094.076.002.028 0 .046.006.058l1.496 2.946c.003.006.011.01.017.014l.029.014c.019-.008.046-.015.071-.027a11.242 11.242 0 013.268-.866c.698-.075 1.392-.077 2.085.06 1.015.201 1.909.662 2.645 1.465.028.032.062.06.091.086.015-.007.023-.008.028-.013l.141-.143a4.637 4.637 0 011.341-.986 5.311 5.311 0 011.773-.49 7.869 7.869 0 012.214.103c.867.155 1.708.414 2.529.758.051.023.103.043.152.063.116-.162 1.47-2.838 1.537-3.032-.003-.007-.005-.016-.01-.02-.059-.044-.117-.088-.177-.131a5.574 5.574 0 01-1.821-2.16c-.011-.022-.018-.047-.029-.07v.013h-1.879v-2.06h1.249a12.732 12.732 0 01-.194-2.016h-1.224v-2.061h1.38a9.79 9.79 0 01.387-1.499 12.042 12.042 0 012.172-3.756l.171-.2c-.517-.677-1.024-1.348-1.534-2.011zm-2.567 3.389h1.88v2.062h-1.88V7.589zm-2.913 12.23h1.879v2.06h-1.879v-2.06zm-.209-4.076h1.879v2.06h-1.879v-2.06zm-.16-8.154h1.879v2.062h-1.879V7.589zm0-4.076h1.879v2.061h-1.879V3.513zm1.869 10.214h-1.879v-2.061h1.879v2.061zm-4.783 6.092h1.88v2.06h-1.88v-2.06zm-.209-4.076h1.879v2.06H9.73v-2.06zm-.16-8.154h1.879v2.062H9.57V7.589zm0-4.076h1.879v2.061H9.57V3.513zm1.869 10.214H9.56v-2.061h1.879v2.061zm-4.782 6.092h1.879v2.06H6.657v-2.06zm-.21-4.076h1.879v2.06H6.447v-2.06zm-.16-8.154h1.88v2.062h-1.88V7.589zm0-4.076h1.88v2.061h-1.88V3.513zm1.87 10.214H6.278v-2.061h1.879v2.061zm-4.783 6.092h1.879v2.06H3.374v-2.06zm-.369-12.23h1.879v2.062H3.005V7.589zm15.379 14.29h-1.879v-2.06h1.879v2.06z"/></svg>

<svg 
 xmlns="http://www.w3.org/2000/svg"
 xmlns:xlink="http://www.w3.org/1999/xlink"
 width="21px" height="25px">
<path fill-rule="evenodd"  fill="rgb(0, 0, 0)"
 d="M20.773,6.813 C20.570,7.054 20.365,7.293 20.176,7.546 C19.476,8.483 18.917,9.512 18.540,10.655 C18.186,11.728 18.047,12.832 18.112,13.970 C18.144,14.548 18.194,15.122 18.305,15.689 C18.416,16.255 18.577,16.804 18.815,17.323 C19.211,18.189 19.781,18.881 20.539,19.383 C20.582,19.412 20.625,19.438 20.666,19.470 C20.975,19.706 21.083,20.131 20.929,20.507 C20.903,20.571 20.870,20.632 20.839,20.694 C20.366,21.628 19.892,22.563 19.418,23.498 C19.383,23.567 19.350,23.636 19.308,23.699 C19.123,23.982 18.804,24.106 18.497,24.014 C18.442,23.999 18.388,23.977 18.335,23.954 C17.591,23.634 16.828,23.389 16.040,23.234 C15.443,23.116 14.842,23.049 14.234,23.077 C13.655,23.104 13.088,23.206 12.542,23.431 C11.881,23.705 11.324,24.136 10.873,24.733 C10.837,24.781 10.804,24.832 10.762,24.875 C10.604,25.038 10.405,25.040 10.244,24.881 C10.212,24.851 10.186,24.813 10.159,24.776 C9.533,23.925 8.716,23.427 7.749,23.207 C7.145,23.070 6.536,23.045 5.921,23.098 C4.811,23.194 3.748,23.499 2.712,23.933 C2.646,23.961 2.579,23.990 2.512,24.012 C2.185,24.111 1.860,23.977 1.672,23.668 C1.644,23.623 1.620,23.575 1.596,23.527 C1.112,22.573 0.628,21.617 0.143,20.661 C0.070,20.517 0.007,20.371 0.003,20.200 C-0.004,19.885 0.109,19.641 0.343,19.460 C0.366,19.443 0.391,19.428 0.416,19.412 C1.367,18.795 2.012,17.899 2.404,16.774 C2.588,16.247 2.706,15.701 2.785,15.144 C2.859,14.618 2.887,14.088 2.899,13.557 C2.926,12.392 2.713,11.276 2.301,10.204 C1.827,8.976 1.156,7.888 0.322,6.918 C0.283,6.873 0.242,6.830 0.204,6.783 C-0.051,6.467 -0.069,6.045 0.159,5.708 C0.175,5.682 0.194,5.658 0.212,5.634 C0.699,4.994 1.188,4.354 1.674,3.710 C1.811,3.528 1.975,3.399 2.192,3.371 C2.268,3.361 2.348,3.362 2.425,3.373 C2.857,3.430 3.290,3.456 3.725,3.432 C4.175,3.407 4.616,3.326 5.044,3.167 C6.167,2.748 6.930,1.922 7.358,0.714 C7.384,0.641 7.403,0.565 7.433,0.495 C7.558,0.204 7.765,0.033 8.061,0.005 C8.132,-0.001 8.204,0.000 8.275,0.000 C9.757,-0.000 11.239,-0.000 12.720,0.000 C12.792,0.000 12.863,-0.001 12.934,0.005 C13.230,0.031 13.438,0.199 13.566,0.489 C13.587,0.538 13.601,0.591 13.618,0.643 C14.103,2.073 15.030,2.953 16.382,3.298 C16.992,3.453 17.609,3.472 18.230,3.407 C18.357,3.394 18.484,3.378 18.612,3.364 C18.853,3.337 19.062,3.417 19.237,3.600 C19.273,3.638 19.304,3.680 19.336,3.722 C19.815,4.352 20.293,4.982 20.772,5.612 C20.799,5.648 20.827,5.684 20.852,5.722 C20.951,5.871 21.005,6.037 20.999,6.194 C20.999,6.456 20.915,6.644 20.773,6.813 ZM18.702,4.200 C18.518,4.217 18.348,4.232 18.178,4.248 C18.124,4.254 18.069,4.246 18.015,4.250 L18.015,5.574 L16.135,5.574 L16.135,4.090 C16.131,4.089 16.126,4.089 16.121,4.087 C15.309,3.871 14.592,3.457 13.994,2.810 C13.532,2.309 13.185,1.724 12.945,1.061 C12.918,0.983 12.909,0.892 12.843,0.837 C12.576,0.812 8.311,0.827 8.131,0.855 C8.104,0.926 8.075,1.005 8.046,1.083 C7.511,2.496 6.598,3.473 5.269,3.965 C5.143,4.012 5.012,4.019 4.884,4.055 L4.884,5.574 L3.005,5.574 L3.005,4.254 C2.951,4.251 2.898,4.260 2.844,4.256 C2.752,4.248 2.660,4.239 2.567,4.230 C2.476,4.222 2.385,4.213 2.305,4.205 C1.943,4.638 0.874,6.058 0.784,6.229 C0.830,6.284 0.878,6.341 0.926,6.398 C1.894,7.546 2.657,8.834 3.155,10.304 C3.307,10.751 3.424,11.205 3.510,11.666 L4.874,11.666 L4.874,13.727 L3.639,13.727 C3.633,14.046 3.634,14.365 3.606,14.684 C3.575,15.040 3.527,15.393 3.464,15.743 L5.043,15.743 L5.043,17.803 L3.164,17.803 L3.164,16.908 C2.735,18.242 2.009,19.330 0.882,20.085 C0.847,20.108 0.816,20.138 0.788,20.161 C0.790,20.189 0.788,20.207 0.794,20.219 C1.292,21.201 1.791,22.183 2.290,23.165 C2.293,23.171 2.301,23.175 2.307,23.179 C2.313,23.183 2.320,23.185 2.336,23.193 C2.355,23.185 2.382,23.178 2.407,23.166 C3.460,22.713 4.548,22.420 5.675,22.300 C6.373,22.225 7.067,22.223 7.760,22.360 C8.775,22.561 9.669,23.022 10.405,23.825 C10.433,23.857 10.467,23.885 10.496,23.911 C10.511,23.904 10.519,23.903 10.524,23.898 C10.571,23.851 10.618,23.803 10.665,23.755 C11.059,23.340 11.507,23.012 12.006,22.769 C12.572,22.495 13.166,22.344 13.779,22.279 C14.521,22.201 15.259,22.251 15.993,22.382 C16.860,22.537 17.701,22.796 18.522,23.140 C18.573,23.163 18.625,23.183 18.674,23.203 C18.790,23.041 20.144,20.365 20.211,20.171 C20.208,20.164 20.206,20.155 20.201,20.151 C20.142,20.107 20.084,20.063 20.024,20.020 C19.246,19.473 18.639,18.754 18.203,17.860 C18.192,17.838 18.185,17.813 18.174,17.790 L18.174,17.803 L16.295,17.803 L16.295,15.743 L17.544,15.743 C17.423,15.077 17.364,14.404 17.350,13.727 L16.126,13.727 L16.126,11.666 L17.506,11.666 C17.600,11.157 17.720,10.655 17.893,10.167 C18.392,8.760 19.132,7.519 20.065,6.411 C20.117,6.349 20.171,6.287 20.236,6.211 C19.719,5.534 19.212,4.863 18.702,4.200 ZM16.135,7.589 L18.015,7.589 L18.015,9.651 L16.135,9.651 L16.135,7.589 ZM13.222,19.819 L15.101,19.819 L15.101,21.879 L13.222,21.879 L13.222,19.819 ZM13.013,15.743 L14.892,15.743 L14.892,17.803 L13.013,17.803 L13.013,15.743 ZM12.853,7.589 L14.732,7.589 L14.732,9.651 L12.853,9.651 L12.853,7.589 ZM12.853,3.513 L14.732,3.513 L14.732,5.574 L12.853,5.574 L12.853,3.513 ZM14.722,13.727 L12.843,13.727 L12.843,11.666 L14.722,11.666 L14.722,13.727 ZM9.939,19.819 L11.819,19.819 L11.819,21.879 L9.939,21.879 L9.939,19.819 ZM9.730,15.743 L11.609,15.743 L11.609,17.803 L9.730,17.803 L9.730,15.743 ZM9.570,7.589 L11.449,7.589 L11.449,9.651 L9.570,9.651 L9.570,7.589 ZM9.570,3.513 L11.449,3.513 L11.449,5.574 L9.570,5.574 L9.570,3.513 ZM11.439,13.727 L9.560,13.727 L9.560,11.666 L11.439,11.666 L11.439,13.727 ZM6.657,19.819 L8.536,19.819 L8.536,21.879 L6.657,21.879 L6.657,19.819 ZM6.447,15.743 L8.326,15.743 L8.326,17.803 L6.447,17.803 L6.447,15.743 ZM6.287,7.589 L8.167,7.589 L8.167,9.651 L6.287,9.651 L6.287,7.589 ZM6.287,3.513 L8.167,3.513 L8.167,5.574 L6.287,5.574 L6.287,3.513 ZM8.157,13.727 L6.278,13.727 L6.278,11.666 L8.157,11.666 L8.157,13.727 ZM3.374,19.819 L5.253,19.819 L5.253,21.879 L3.374,21.879 L3.374,19.819 ZM3.005,7.589 L4.884,7.589 L4.884,9.651 L3.005,9.651 L3.005,7.589 ZM18.384,21.879 L16.505,21.879 L16.505,19.819 L18.384,19.819 L18.384,21.879 Z"/>
</svg>
